X:1
T:The Hallowed Cross
T:John Hart Stockton (1813-1877)
T:The Hallowed Cross
T:Public Domain
T:Public Domain
C:John Hart Stockton (1813-1877)
Z:Public Domain
%%score ( 1 2 ) ( 3 4 )
L:1/8
M:4/4
K:Eb
V:1 treble 
V:2 treble 
V:3 bass 
V:4 bass 
V:1
 ([EG][FA]) | [GB]3 [GB] [Ge]3 [GB] | [Ac]2 [Ae]2 [GB]3 [EG] | [DF]2 [DF]2 E2 [DF]2 | %4
w: 1.~The *|Cross! the Cross! that|blood- stained Cross! The|hal- lowed Cross I|
w: 2.~That *|Cross! that Cross! that|hea- vy Cross, My|Sav- ior bore for|
w: 3.~The *|crown! the crown! the|glor- ious crown! The|crown of vic- to-|
w: 4.~My *|tears, un- bid- den,|seem to flow, For|love, un- bound- ed|
 [EG]6 ([EG][FA]) | [GB]3 [GB] [Ge]3 [GB] | [Ac]2 [Ae]2 [GB]3 [EG] | [EB]2 [Ec]2 [EG]2 [DF]2 | %8
w: Re- mind- *|ing me of pre-|cious blood That once|was shed for me.|
w: Which bowed *|Him to the earth|with grief, On sad|Mount Cal- va- ry.|
w: The crown *|of life! It shall|be mine When I|shall Je- sus see.|
w: Which guides *|me thro’ this world|of woe And points|to joys a- bove.|
 [B,E]4 ||"^Refrain" [EG]3 [B,F] | [B,E]3 [B,E] [DF]2 [DG]2 | [B,E]4 [EB]4 | [Ec]2 [EB]2 [EG]2 E2 | %13
w: |||||
w: Oh,|the blood!|the pre- cious blood!|That Je-|sus shed for me,|
w: |||||
w: |||||
 [DF]6 (EF) | [EG]3 [B,F] [B,E]2 [B,G]2 | [A,C]2 [CE]2 [CE]2 [EG]2 | [DF]3 E [DF]2 [DG]2 | %17
w: ||||
w: on the *|in crim- son flood,|Just now by faith|I see. * *|
w: ||||
w: ||||
 [B,E]6 x2 |] x6 |] %19
w: ||
w: ||
w: ||
w: ||
V:2
 x2 | x8 | x8 | x4 E2 x2 | x8 | x8 | x8 | x8 | x4 || x4 | x8 | x8 | x6 E2 | x6 E2 | x8 | x8 | %16
w: |||see!|||||||||||||
w: |||me,|||||||||Up-|Cross|||
w: |||ry!|||||||||||||
w: |||love,|||||||||||||
 x3 E x4 | x8 |] x6 |] %19
w: |||
w: |||
w: |||
w: |||
V:3
 [E,B,]2 | [E,E]3 [E,E] [E,B,]3 [E,E] | [A,,E]2 [C,E]2 [E,E]3 [E,B,] | %3
 [B,,B,]2 [B,,B,]2 [C,G,]2 [B,,B,]2 | [E,B,]6 [E,B,]2 | [E,E]3 [E,E] [E,B,]3 [E,E] | %6
 [A,,E]2 [C,E]2 [E,E]3 [E,B,] | [G,E]2 [A,E]2 B,2 [B,,A,]2 | [E,G,]4 || [E,B,]3 [E,A,] | %10
 [E,G,]3 [E,G,] x4 | [B,,A,]2 [B,,B,]2 x4 | [E,G,]4 [E,G,]4 | [E,A,]2 [E,G,]2 [E,B,]2 [E,G,]2 | %14
 [B,,B,]6 (G,A,) | [E,B,]3 [E,A,] [E,G,]2 E,2 | [A,,E,]2 [A,,A,]2 [A,,A,]2 [E,B,]2 | %17
 [B,,A,]3 [B,,G,] [B,,A,]2 [B,,B,]2 |] [E,G,]6 |] %19
V:4
 x2 | x8 | x8 | x8 | x8 | x8 | x8 | x4 B,2 x2 | x4 || x4 | x8 | x8 | x8 | x8 | x6 E,2 | x6 E,2 | %16
 x8 | x8 |] x6 |] %19

